packages/sources/icons/src/vitamix/volume-mute-line.svg

<svg width="16" height="16" viewBox="0 0 16 16" xmlns="http://www.w3.org/2000/svg"><path fill-rule="evenodd" clip-rule="evenodd" d="M3.92596 10.6666H1.33329C0.965103 10.6666 0.666626 10.3682 0.666626 9.99998V5.99998C0.666626 5.63179 0.965103 5.33331 1.33329 5.33331H3.92596L7.45529 2.44531C7.55497 2.36359 7.69283 2.34666 7.80932 2.40184C7.92581 2.45702 8.00005 2.57441 7.99996 2.70331V13.2966C8.00005 13.4255 7.92581 13.5429 7.80932 13.5981C7.69283 13.6533 7.55497 13.6364 7.45529 13.5546L3.92596 10.6666ZM6.66663 4.81333L4.40196 6.66666H1.99996V9.33333H4.40196L6.66663 11.1867V4.81333ZM15.9666 10.3573L13.6093 7.99997L15.9666 5.64264L15.0239 4.69997L12.6666 7.0573L10.3093 4.69997L9.36661 5.64264L11.7239 7.99997L9.36661 10.3573L10.3093 11.3L12.6666 8.94264L15.0239 11.3L15.9666 10.3573Z"/></svg>

<svg width="16" height="16" xmlns="http://www.w3.org/2000/svg"><path fill-rule="evenodd" clip-rule="evenodd" d="M3.926 10.667H1.333A.667.667 0 0 1 .667 10V6c0-.368.298-.667.666-.667h2.593l3.53-2.888A.333.333 0 0 1 8 2.703v10.594a.333.333 0 0 1-.545.258l-3.529-2.888Zm2.74-5.854L4.403 6.667H2v2.666h2.402l2.265 1.854V4.813Zm9.3 5.544L13.61 8l2.358-2.357-.943-.943-2.357 2.357L10.309 4.7l-.942.943L11.724 8l-2.357 2.357.942.943 2.358-2.357 2.357 2.357.943-.943Z"/></svg>
